X:66
T:Bridge O'Leary's Polka
B:Terry "Cuz" Teahan "Sliabh Luachra on Parade" 1980
Z:Patrick Cavanagh
M:2/4
L:1/8
R:Polka
K:G
| de/d/ Bd | Gd Bd | eg/e/ dB | AG E2 | 
de/d/ Bd | Gd Bd | eg/e/ dB | AG G2 :| 
| Bd ge/e/ | dB A/A/G | Bd ge/e/ | dB A2 | 
Bd ge/e/ | dB A/A/G | de/d/ Bd/B/ | AG G2 :|| 

